icons/brush-plus.svg

<svg fill="none" stroke="currentColor" stroke-linecap="round" stroke-linejoin="round" stroke-width="1.5" viewBox="0 0 24 24"><path d="M9.53 16.122a3 3 0 0 0-2.78-1.872c-1.646 0-3 1.354-3 3q0 0 0 0a2.26 2.26 0 0 1-2.4 2.245 4.5 4.5 0 0 0 3.9 2.255c2.469 0 4.5-2.031 4.5-4.5q0 0 0 0c0-.399-.078-.78-.22-1.128m0 0a16 16 0 0 0 3.388-1.62m-5.043-.025c.405-1.192.95-2.331 1.622-3.395m3.42 3.42a16 16 0 0 0 4.764-4.648l3.876-5.814c.127-.19.195-.413.195-.641 0-.631-.52-1.151-1.151-1.151-.228 0-.451.068-.641.195L14.146 6.32a16 16 0 0 0-4.649 4.763m3.42 3.42a6.78 6.78 0 0 0-3.42-3.42M4 1v6m3-3H1"/></svg>

<svg width="24" height="24" xmlns="http://www.w3.org/2000/svg" clip-rule="evenodd" viewBox="0 0 24 24"><title>brush plus</title><g stroke-linejoin="round" class="nc-icon-wrapper" fill="#ffffff" stroke-linecap="round" fill-rule="evenodd"><path d="M9.53,16.122C9.072,14.992 7.969,14.25 6.75,14.25C5.104,14.25 3.75,15.604 3.75,17.25C3.75,17.25 3.75,17.25 3.75,17.25C3.75,18.484 2.734,19.5 1.5,19.5C1.45,19.5 1.4,19.498 1.35,19.495C2.152,20.888 3.642,21.75 5.25,21.75C7.719,21.75 9.75,19.719 9.75,17.25C9.75,17.25 9.75,17.25 9.75,17.25C9.75,16.851 9.672,16.47 9.53,16.122ZM9.53,16.122C10.719,15.717 11.856,15.173 12.918,14.502M7.875,14.477C8.28,13.285 8.825,12.146 9.497,11.082M12.917,14.502C14.813,13.304 16.437,11.72 17.681,9.854L21.557,4.04C21.684,3.85 21.752,3.627 21.752,3.399C21.752,2.768 21.232,2.248 20.601,2.248C20.373,2.248 20.15,2.316 19.96,2.443L14.146,6.32C12.28,7.564 10.696,9.187 9.497,11.083M12.917,14.503C12.237,12.982 11.018,11.763 9.497,11.083" fill="none" fill-rule="nonzero" stroke="#ffffff" stroke-width="1.5"></path><path d="M12,9L12,15M15,12L9,12" fill="none" fill-rule="nonzero" stroke="#ffffff" stroke-width="1.5" transform="translate(-8 -8)"></path></g></svg>
